X:1
T:Title
%%score { 1 | 2 }
L:1/8
Q:1/4=90
M:6/8
K:G
V:1 treble nm="Grand Piano"
V:2 treble 
V:1
 G2 A G2 A | B2 c B2 G | [FA]2 [GB] [Ac]2 [GB] | [FA]2 G [FA]3 | G2 A G2 A | B2 c B2 G | %6
w: W.~J.~Kirkpatrick * * *||||||
 [EA]2 [EB] [Ec]2 [EA] |[M:15/16] G->GFG3/2- G3 |[M:3/4] B2 c d2 B | [FA]2 [GB] [Ac]3 | B2 c d2 e | %11
w: |||||
 d2 B [FA]3 | G2 A G2 A | B2 c d2 B | [CEA]2 [EAc] [DGB]2 [CFA] | [G,B,G]6 |] %16
w: |||||
V:2
 [G,B,D]2 [G,CD] [G,B,D]2 [G,CD] | [G,DG]2 [G,EG] [G,DG]2[K:bass] [G,B,D] | %2
 [D,D]2 [D,D] [D,D]2 [D,D] | [D,D]2 [D,B,] [D,D]3 | [G,B,D]2 [G,CD] [G,B,D]2 [G,CD] | %5
 [G,DG]2 [G,EG] [G,DG]2[K:bass] [G,B,D] | [C,A,]2 [B,,^G,] [A,,A,]2 [C,A,] | %7
[M:15/16] [D,B,D]->[D,B,D][D,A,D][K:treble][G,B,D]3/2- [G,B,D]3 | %8
[M:3/4] [G,D]2 [G,A,D] [G,B,D]2 [G,DG] | [D,D]2 [D,D] [D,D]3 | [G,DG]2 [G,A,G] [G,B,G]2 [G,CG] | %11
 [G,B,G]2 [G,DG][K:bass] [D,D]3 | [G,B,D]2 [G,CD] [G,B,D]2 [G,CD] | %13
 [G,DG]2 [G,A,G] [G,B,G]2[K:bass] [G,D] | C,2 A,, D,2 D, | G,,6 |] %16

